X:1
T:Down from the Skies
T:Down from the Skies
T:Benjamin Russell Hanby
T:Benjamin Russell Hanby, 1865
T:Public Domain Courtesy of the Cyber Hymnal™
T:Public Domain Courtesy of the Cyber Hymnal™
C:Benjamin Russell Hanby
Z:Public Domain
Z:Courtesy of the Cyber Hymnal™
%%score ( 1 2 ) ( 3 4 )
L:1/8
Q:1/4=95
M:2/4
K:C
V:1 treble 
V:2 treble 
V:3 bass 
V:4 bass 
V:1
 [EG]2 [EG][EG] | [EG]2 [FA][EG] | [DF]2 [EG][DF] | [CE]2 C2 | [Ec]2 [Ec][Ec] | [Gc]2 [Gc][Gc] | %6
w: 1.~Down from the|skies bend- ing|low o’er the|man- ger,|White robed ce-|les- tials a-|
w: 2.~Hail Him, ye|shep- herds, a-|dore Him, ye|sag- es,|Ho! wait- ing|Is- rael still|
w: 3.~Dark is the|path- way be-|fore Him and|drea- ry,|On- ward it|leads to the|
w: 4.~Weep not, O|strick- en ones,|when shall en-|fold Him|All the deep|dark- ness of|
 d2 [Ec][FB] | [Ec]4 | [EG]2 [EG][EG] x4 | [EG]2 [FA][EG] | [DF]2 [EG][DF] | [CE]2 C2 | %12
w: dor- ing- ly|throng;|Hark! for they|her- ald a|heav- en- ly|stran- ger;|
w: faith- ful, though|few;|Gen- tiles, Oh|list to the|voice of the|ag- es,|
w: cross and the|grave;|Cheer- ful He|treads it though|faint- ing and|wea- ry,|
w: Cal- va- ry’s|gloom;|Soon, soon your|tear blind- ed|eyes shall be-|hold Him,|
 [Ec]2 [Ec][Ec] | [Gc]2 [Gc][Gc] | d2 [Ec][FB] | [Ec]2 ||"^Refrain" [Gc][GB] x2 | %17
w: Hast- en, ye|mor- tals, to|join in their|song.||
w: Lo! a De-|liv- ’rer is|com- ing to|you.|Lit- tle|
w: Thus, on- ly|thus, He His|loved ones can|save.||
w: Walk- ing a|God from the|gates of the|tomb.||
 [FA][FA] [FA][FA] | [FA]2 [Fc][FA] | [FA][EG] [EG][EG] | [EG]2 [DF][CE] | [B,D][A,C] [B,D][CE] | %22
w: |||||
w: child- ren lisp His|grace, Youth- ful|voic- es sound His|praise; Men and|an- gels raise your|
w: |||||
w: |||||
 [DF][EG] [FA][DB] | [Ec]2 (Bc) | [Gd]2 [Gc][GB] | [FA][FA] [FA][FA] | [FA]2 [Fc][FA] | %27
w: |||||
w: loud ho- san- nas|to His *|name; O- ceans|with your full- ness|roar, Earth re-|
w: |||||
w: |||||
 [FA][EG] [EG][EG] | [EG]2 [CE][DF] | [EG]2 [Ec]2 | [Fd]2 [FB]2 | [Ec]4 |] %32
w: |||||
w: sound from shore to|shore, Hal- le-|lu- jah|to the|Lamb.|
w: |||||
w: |||||
V:2
 x4 | x4 | x4 | x2 C2 | x4 | x4 | (AF) x2 | x4 | x8 | x4 | x4 | x2 C2 | x4 | x4 | (AF) x2 | x2 || %16
 x4 | x4 | x4 | x4 | x4 | x4 | x4 | x2 G2 | x4 | x4 | x4 | x4 | x4 | x4 | x4 | x4 |] %32
V:3
 [C,C]2 [C,C][C,C] | [C,C]2 [C,C][C,C] | [G,B,]2 [G,B,][G,B,] | [C,C]2 [C,C]2 | %4
 [C,G,]2 [C,G,][C,G,] | [E,C]2 [E,C][E,C] | (A,D) [G,E][G,D] | [C,C]4 | %8
 [C,C]2 [C,C][C,C] [C,C]2 [C,C][C,C] | [G,B,]2 [G,B,][G,B,] | [C,C]2 [C,C]2 | %11
 [C,G,]2 [C,G,][C,G,] | [E,C]2 [E,C][E,C] | (A,D) [G,E][G,D] | [C,C]2 x2 | [E,C][E,C] || %16
 [F,C][F,C] [F,C][F,C] | [F,C]2 [F,A,][F,C] | [C,C][C,C] [C,C][C,C] | [C,C]2 [C,G,][C,G,] | %20
 [G,,G,][G,,G,] [G,,G,][G,,G,] | [G,,G,][G,,G,] [G,,G,][G,,G,] | [C,G,]2 [E,G,]2 | %23
 [G,B,]2 [E,C][E,C] | [F,C][F,C] [F,C][F,C] | [F,C]2 [F,A,][F,C] | [C,C][C,C] [C,C][C,C] | %27
 [C,C]2 [C,C][C,C] | [C,C]2 [C,G,]2 | [F,A,]2 [G,D]2 | [C,C]4 | x4 |] %32
V:4
 x4 | x4 | x4 | x4 | x4 | x4 | F,2 x2 | x4 | x8 | x4 | x4 | x4 | x4 | F,2 x2 | x4 | x2 || x4 | x4 | %18
 x4 | x4 | x4 | x4 | x4 | x4 | x4 | x4 | x4 | x4 | x4 | x4 | x4 | x4 |] %32

